public/img/ico-rocket.svg

<svg width="55" height="55" viewBox="0 0 55 55" fill="none" xmlns="http://www.w3.org/2000/svg">
<path d="M27.6241 40.7405C27.3911 40.7405 27.158 40.6513 26.9796 40.4747L15.2774 28.7725C14.9351 28.4301 14.9205 27.8821 15.241 27.5216L24.0117 17.6966C30.1423 10.5245 40.1257 5.88334 48.8309 6.03082C49.317 6.04174 49.7085 6.43321 49.7194 6.91936C49.9215 15.63 45.2275 25.6079 38.0372 31.7513L28.2286 40.5093C28.0575 40.664 27.839 40.7405 27.6241 40.7405ZM17.1728 28.0933L27.6587 38.5792L36.841 30.382C43.4067 24.7704 47.7675 15.8267 47.9023 7.84979C39.9254 7.9827 30.9835 12.3435 25.3827 18.8947L17.1728 28.0933Z" fill="white"/>
<path d="M31.111 47.4047C31.0236 47.4047 30.9344 47.3919 30.8506 47.3646C30.5229 47.2554 30.2534 47.0041 30.2061 46.6618L28.957 37.9457C28.886 37.4486 29.2319 36.988 29.729 36.9151C30.2261 36.8368 30.6867 37.1883 30.7596 37.6872L31.7355 44.4969C34.9255 40.6823 36.699 35.8463 36.699 30.9156C36.699 30.4131 37.1068 30.0052 37.6094 30.0052C38.1119 30.0052 38.5198 30.4131 38.5198 30.9156C38.5198 36.9479 36.0763 42.8527 31.8156 47.1115C31.6336 47.2936 31.3677 47.4047 31.111 47.4047Z" fill="white"/>
<path d="M17.9375 26.8041C17.8956 26.8041 17.8519 26.8023 17.8082 26.795L9.0921 25.546C8.74979 25.4968 8.46393 25.2583 8.3565 24.9287C8.24907 24.601 8.33647 24.2386 8.58228 23.9965C12.903 19.6757 18.806 17.2322 24.8383 17.2322C25.3408 17.2322 25.7487 17.6401 25.7487 18.1426C25.7487 18.6452 25.3408 19.053 24.8383 19.053C19.8839 19.053 15.0224 20.8429 11.2479 24.0147L18.0668 24.9924C18.5638 25.0653 18.9098 25.5241 18.8388 26.023C18.7714 26.4764 18.3818 26.8041 17.9375 26.8041Z" fill="white"/>
<path d="M37.2233 23.0787C36.0562 23.0787 34.8909 22.6344 34.0042 21.7477C32.2307 19.9724 32.2307 17.0847 34.0042 15.3094C35.7794 13.5341 38.6672 13.5341 40.4425 15.3094C42.2159 17.0847 42.2159 19.9724 40.4425 21.7477C39.5539 22.6362 38.3886 23.0787 37.2233 23.0787ZM37.2233 15.7992C36.5241 15.7992 35.8231 16.065 35.2915 16.5967C34.2281 17.6618 34.2281 19.3952 35.2915 20.4604C36.3566 21.5237 38.09 21.5219 39.1552 20.4604C40.2185 19.3952 40.2185 17.6618 39.1552 16.5967C38.6217 16.0668 37.9225 15.7992 37.2233 15.7992ZM39.7979 21.105H39.8161H39.7979Z" fill="white"/>
<path d="M6.93813 49.724C6.69961 49.724 6.46837 49.6312 6.29357 49.4582C6.05687 49.2215 5.96947 48.8737 6.06597 48.5533C6.36458 47.5573 9.03932 38.7556 10.9876 36.8074C13.1816 34.6133 16.7522 34.6115 18.9462 36.8074C21.1403 39.0014 21.1403 42.572 18.9462 44.766C16.998 46.7143 8.1963 49.389 7.20032 49.6876C7.11293 49.7113 7.02553 49.724 6.93813 49.724ZM14.9678 36.9803C13.9919 36.9803 13.0177 37.3518 12.2749 38.0928C11.2243 39.1452 9.47631 43.8447 8.32193 47.4298C11.9052 46.2754 16.6065 44.5275 17.6571 43.4769C19.1411 41.993 19.1411 39.5768 17.6571 38.0928C16.9161 37.3518 15.9419 36.9803 14.9678 36.9803Z" fill="white"/>
</svg>

<svg width="55" height="55" viewBox="0 0 55 55" fill="none" xmlns="http://www.w3.org/2000/svg"><path d="M27.624 40.74a.914.914 0 0 1-.644-.265L15.277 28.772a.912.912 0 0 1-.036-1.25l8.77-9.825c6.131-7.172 16.115-11.814 24.82-11.666a.91.91 0 0 1 .888.888c.203 8.711-4.492 18.689-11.682 24.832L28.23 40.51a.902.902 0 0 1-.605.231zM17.173 28.093L27.659 38.58l9.182-8.197C43.407 24.77 47.767 15.827 47.902 7.85c-7.977.133-16.919 4.494-22.52 11.045l-8.21 9.198z" fill="#fff"/><path d="M31.111 47.405a.846.846 0 0 1-.26-.04c-.328-.11-.598-.36-.645-.703l-1.249-8.716a.912.912 0 0 1 .772-1.03.906.906 0 0 1 1.03.771l.976 6.81c3.19-3.815 4.964-8.65 4.964-13.581a.91.91 0 0 1 1.82 0c0 6.032-2.443 11.937-6.703 16.195a1.023 1.023 0 0 1-.705.294zM17.938 26.804a.784.784 0 0 1-.13-.009l-8.716-1.249a.909.909 0 0 1-.51-1.55c4.321-4.32 10.224-6.764 16.256-6.764a.91.91 0 0 1 0 1.821 21.25 21.25 0 0 0-13.59 4.962l6.819.977a.912.912 0 0 1-.13 1.812zm19.285-3.725a4.538 4.538 0 0 1-3.219-1.331 4.56 4.56 0 0 1 0-6.439 4.557 4.557 0 0 1 6.439 0 4.56 4.56 0 0 1 0 6.439 4.537 4.537 0 0 1-3.22 1.33zm0-7.28c-.699 0-1.4.266-1.931.798a2.738 2.738 0 0 0 0 3.863 2.74 2.74 0 0 0 3.863 0 2.739 2.739 0 0 0 0-3.863 2.736 2.736 0 0 0-1.932-.798zm2.575 5.306h.018-.018zM6.938 49.724a.91.91 0 0 1-.872-1.17c.299-.997 2.973-9.798 4.922-11.747a5.632 5.632 0 0 1 7.958 0 5.634 5.634 0 0 1 0 7.959c-1.948 1.948-10.75 4.623-11.746 4.922a1 1 0 0 1-.262.036zm8.03-12.744a3.8 3.8 0 0 0-2.693 1.113c-1.05 1.052-2.799 5.752-3.953 9.337 3.583-1.155 8.285-2.902 9.335-3.953a3.812 3.812 0 0 0 0-5.384 3.793 3.793 0 0 0-2.69-1.113z" fill="#fff"/></svg>
